X:1
T:Go Wash in the Beautiful Stream
T:Go Wash in the Beautiful Stream
T:Charles Albert Tindley
T:Charles Albert Tindley, 1901
T:Public Domain Courtesy of the Cyber Hymnal™
T:Public Domain Courtesy of the Cyber Hymnal™
T:Public Domain Courtesy of the Cyber Hymnal™
C:Charles Albert Tindley
Z:Public Domain
Z:Courtesy of the Cyber Hymnal™
%%score ( 1 2 ) 3
L:1/8
Q:1/4=85
M:4/4
K:F
V:1 treble 
V:2 treble 
V:3 bass 
V:1
 (F/[FG]/) | [FA][FA][FA][FA] [EG]F | ([DG][DF])[B,D] [CF]2 (F/[FG]/) | %3
w: 1.~There~was *|Naa- man the lep- er, that|hon’ra- * ble man, A *|
w: 2.~He *|heard of a man in the|He- * brew land, A *|
w: 3.~So *|Naa- man went on, and the|servant * had gone Whom~E- *|
w: 4.~O *|sin- ner, O sin- ner, are|you~not * the same As *|
 [FA][FA] ([FA]/[FA]/) ([FA] [EG])F | [EG]3- [EG]2 (F/[FG]/) | ([FA][FA])[FA] ([FA] [EG])F | %6
w: cap- tain of~the * Syri- * an|host; * He~was *|badly * af- flicted * and|
w: lit- tle maid * told~him * a-|bout; * “I’ll *|go~if * I can,” * he|
w: li- sha had * sent~to * the|door; * He *|did~not * be- lieve * that|
w: Naa- man that * not- * ~ed|Syrian? * Your *|sick- * ~ness in~jures * both|
 [DG][DF][B,D] [CF]2 (F/[FG]/) | [FA][FA][FA] ([EG] F)[EG] | [CF]3- [CF]2 (F/F/) | %9
w: sick in the land, And~a *|bur- den to all~of * his|host; * O *|
w: said to his friend, “For *|he may re- lieve~me, * no|doubt”; * So~he *|
w: He had re- ceived From~the *|pro- phet a per- * fect|cure; * He *|
w: bo- dy and soul, And *|makes you feel loathsome * and|mean. * If~you *|
 [DB]2 ([DB]/[DB]/) [DB]2 (F/[FA]/) | [FA][FA][FA] [FA]2 (F/F/) | [EG][EG][EG][EG] [DF]>[EG] | %12
w: my, what~a * sight! his~dis- *|ease made him white, No *|doc- tor could help him I’ve|
w: went and * called on~the *|ser- vant of God, And~E- *|li- sha re- fused to be|
w: thought that~the * riv- ers~down *|in his own land Were *|bet- ter be- cause they were|
w: feel you~are * lost, just *|shoul- der the cross, And *|Je- sus will then make you|
 [FA]3- [FA]2 (F/F/) | [FA][FA][FA] ([FA] [FA]) ([EG]/F/) | ([DG][DF])[B,D] [CF]2 (F/[FG]/) | %15
w: seen; * He *|ne- ver did pray, * and~he *|knew~not * the way To~get *|
w: seen. * But~he *|lift- ed his burden * and *|sent~him * to Jordan, To *|
w: clean; * It~was *|just a- bout night~when * he *|got~in * the light And *|
w: clean. * If~you *|feel you are sick, * just *|come~a- * long quick, And~get *|
 [FA][FA] ([FA]/[FA]/)[EG] F>[EG] | [CF]3- [CF]2 ||"^Refrain" !fermata![Fc] | %18
w: in- to the * beau- ti- ful|stream. *||
w: wash in the * beau- ti- ful|stream. *||
w: plunged in- to~the * beau- ti- ful|stream. *||
w: in- to the * beau- ti- ful|stream. *||
 [Fd][Fc][FA][EG] F>[FA] | [Fc]3- [Fc]2 !fermata![Fc] | [Fd][Fc][FA][FA] [EG]>F | %21
w: |||
w: |||
w: |||
w: |||
 [EG]3 F3 [FA][FA][FA][FA][FA] ([EG]/F/) | ([DG][DF])[B,D] [CF]2 (F/[FG]/) | %23
w: ||
w: ||
w: ||
w: ||
 [FA][FA] ([FA]/[FA]/)[EG] F>[EG] | [CF]3- [CF]2 |] %25
w: ||
w: ||
w: ||
w: ||
V:2
 F/ x/ | x5 F | x5 F/ x/ | x5 F | x5 F/ x/ | x5 F | x5 F/ x/ | x4 F x | x5 F/F/ | x5 F/ x/ | %10
 x5 F/F/ | x6 | x5 F/F/ | x11/2 F/ | x5 F/ x/ | x4 F3/2 x/ | x5 || x | x4 F3/2 x/ | x6 | x11/2 F/ | %21
 x3 F3 x5/2 F/ x3 | x5 F/ x/ | x4 F3/2 x/ | x5 |] %25
V:3
 ([F,A,]/[F,B,]/) | [F,C][F,C][F,C][F,C] [F,B,][F,A,] | %2
w: ||
 ([B,,B,][B,,B,])[B,,F,] [F,A,]2 ([F,A,]/[F,B,]/) | %3
w: |
 [F,C][F,C] ([F,C]/[F,C]/) ([F,C] [F,B,])[F,A,] | [C,C]3- [C,C]2 ([F,A,]/[F,B,]/) | %5
w: ||
 ([F,C][F,C])[F,C] ([F,C] [F,B,])[F,A,] | [B,,B,][B,,B,][B,,F,] [F,A,]2 ([F,A,]/[F,B,]/) | %7
w: ||
 [F,C][F,C][F,C] ([C,B,] [D,A,])[C,B,] | [F,A,]3- [F,A,]2 ([F,A,]/[F,A,]/) | %9
w: ||
 [B,,B,]2 ([B,,B,]/[B,,B,]/) [B,,B,]2 [F,A,]/[F,C]/ | [F,C][F,C][F,C] [F,C]2 ([F,A,]/[F,A,]/) | %11
w: ||
 [C,C][C,C][C,C][C,C] [C,C]>[C,C] | [F,C]3- [F,C]2 ([F,A,]/[F,A,]/) | %13
w: ||
 [F,C][F,C][F,C] ([F,C] [F,C]) ([F,B,]/[F,A,]/) | %14
w: |
 ([B,,B,][B,,B,])[B,,F,] [F,A,]2 ([F,A,]/[F,B,]/) | [F,C][F,C] ([F,C]/[F,C]/)[C,B,] [C,A,]>[C,B,] | %16
w: ||
 [F,A,]3- [F,A,]2 || !fermata![F,A,] | [F,B,][F,A,][F,C][F,B,] [F,A,]>[F,C] | %19
w: |Go|wash in the beau- ti- ful|
 [F,A,]3- [F,A,]2 !fermata![F,A,] | [F,B,][F,A,][F,C][F,C] [F,B,]>[F,A,] | %21
w: stream, * Go|wash in the beau- ti- ful|
 [C,C]3 [F,A,]3 [F,C][F,C][F,C][F,C][F,C] ([F,B,]/[F,A,]/) | %22
w: stream, O Naa- man, O Naa- man, go *|
 ([B,,B,][B,,B,])[B,,F,] [F,A,]2 ([F,A,]/[F,B,]/) | [F,C][F,C] ([F,C]/[F,C]/)[C,B,] [C,A,]>[C,B,] | %24
w: down * and wash, Go *|wash in the * beau- ti- ful|
 [F,A,]3- [F,A,]2 |] %25
w: stream. *|

